X:877
T:Reel 877
M:4/4
K:Gmaj
L:1/8
G2 (3BAG dG (3BAG |dGgG fGeG|dG (3BAG dGBG|| (3efg dB BBAF:||2 (3efg dB BAAf|g2gf gdBd|gfgd egaf|g2gf gbaf|edef gbaf|gfgd BGG2|efed edaz|gaaf gedc|BcAB G2z2|
